!!!OTL: DER SAENGER HAELT IM FELD DIE FAHNENWACHT
!!!ARE: Europa, Mitteleuropa, Deutschland
!!!SCT: B0574
!!!YEM: Copyright 1995, estate of Helmut Schaffrath.
**kern
*ICvox
*Ivox
*M4/4
*k[]
*C:
{8G
=1
4.c
8G
4.E
8A
=2
8.G
16E
8.C
16D
4E
8r}
{8E
=3
8.F
16C#
8.D
16E
8.F
16D
8.B
16A
=4
4.G
8F
4E
8r}
{8G
=5
4.c
8G
4.E
8A
=6
8.G
16E
8.C
16D
4E
8r}
{8E
=7
8.D
16C#
8.D
16E
8.F#
16G
8.A
16B
=8
4.B
8A
4G
8r}
{8G
=9
8G
8G
8A
8G
4.d
8F
=10
8E
8A
4G
8r}
{8A
8G
8c
=11
4.B
8B
8.d
16c
8.G
16E
=12
8.D
16E
4D
4r}
{4G
=13
4c
8G
8A-
4.B-
8E-
=14
8A-
8A-
8E
8F
4G
8r}
{8G
=15
8.G
16G
8.A
16G
8.e
16c
8.G
16E
=16
4.G
8F
4E
8r}
{8E
=17
8.D
16C#
8.D
16E
8F
8G
8A
8d
=18
2B
4c
8r}
==
!!!AGN: Staende -, Soldaten - Lied
!!!ONB: ESAC (Essen Associative Code) Database: BOEHME
!!!AMT: simple quadruple
!!!AIN: vox
!!!EED: Helmut Schaffrath
!!!EEV: 1.0
*-
